img/catalog/icon-column.svg

<svg xmlns="http://www.w3.org/2000/svg" width="16" height="14" fill="none"><path fill="#000" d="M16 12H0v2h16v-2ZM14 2v6H2V2h12Zm2-2H0v10h16V0Z"/></svg>

<svg width="16" height="14" viewBox="0 0 16 14" fill="none" xmlns="http://www.w3.org/2000/svg">
<g clip-path="url(#clip0_33548_952)">
<path d="M16 12H0V14H16V12Z" fill="black"/>
<path d="M14 2V8H2V2H14ZM16 0H0V10H16V0Z" fill="black"/>
</g>
<defs>
<clipPath id="clip0_33548_952">
<rect width="16" height="14" fill="white"/>
</clipPath>
</defs>
</svg>
